X: 39
T: No_133_Whooping_Crane_Dance_Song_(a).krn
N: Derived from No_133_Whooping_Crane_Dance_Song_(a).krn
%%abc-version 2.0
%%abcx-abcm2ps-target-version 5.9.1 (29 Sep 2008)
%%abc-creator hum2abc beta
%%abcx-conversion-date 2019/03/15 08:38:45
%%humdrum-veritas 1825901568
%%humdrum-veritas-data 3128376956
%%linebreak <none>
%%barnumbers 0
L: 1/16
M: 2/4
K: Eb clef=bass
[K:clef=bass][M:2/4]B,B,3 CC(C2 [I:setbarnb 2]| 
B,4)B,G,3 | 
B,B,3 B,A,A,2 | 
A,4G,E,3 | 
E,E,C,2 B,,2 z2 | 
E,E,3 A,A,A,2 | 
A,4G,E,3 | 
E,E,(E,C,)B,,4 :|]  



